packages/ffe-icons/icons/open/300/sm/thumb_up.svg

<svg xmlns="http://www.w3.org/2000/svg" height="20" viewBox="0 -960 960 960" width="20"><path d="M827.691-604.999q23.539 0 43.923 20.385 20.385 20.384 20.385 43.923v41.614q0 7.297-1.116 13.495-1.115 6.197-4.115 11.428L773.135-206.648q-8.598 20.185-32.328 31.416-23.731 11.231-45.718 11.231l-422.627-1v-439.998L499.154-831.69q15.923-15.923 35.615-21.231 19.692-5.308 34.576 3.385 14.884 8.692 18.076 29.345 3.193 20.654-1.654 45.807l-32.076 169.385h274Zm-503.23 21.538V-217H709.23q4.231 0 8.654-2.308 4.424-2.308 6.732-7.693L840-496v-44.691q0-5.385-3.462-8.847-3.462-3.462-8.847-3.462H491.846L537-794.231l-212.539 210.77Zm-192.152 418.46q-27.827 0-46.067-18.891-18.24-18.89-18.24-45.417v-311.382q0-26.527 18.24-45.417 18.24-18.891 46.067-18.891h140.153V-553H132.309q-5.385 0-8.847 3.462-3.462 3.462-3.462 8.847v311.382q0 5.385 3.462 8.847 3.462 3.462 8.847 3.462h140.153v51.999H132.309ZM324.461-217v-366.461V-217Z"/></svg>

<svg xmlns="http://www.w3.org/2000/svg" height="20" viewBox="0 -960 960 960" width="20"><path d="M827.69-605q23.54 0 43.92 20.39Q892-564.23 892-540.69v41.61q0 7.3-1.12 13.5-1.11 6.19-4.11 11.43l-113.64 267.5q-8.59 20.19-32.32 31.42T695.09-164l-422.63-1v-440l226.69-226.69q15.93-15.92 35.62-21.23 19.69-5.31 34.57 3.38 14.89 8.7 18.08 29.35 3.19 20.65-1.65 45.81L553.69-605h274Zm-503.23 21.54V-217h384.77q4.23 0 8.65-2.31 4.43-2.31 6.74-7.69L840-496v-44.69q0-5.39-3.46-8.85t-8.85-3.46H491.85L537-794.23 324.46-583.46ZM132.31-165q-27.83 0-46.07-18.89Q68-202.78 68-229.31v-311.38q0-26.53 18.24-45.42T132.31-605h140.15v52H132.31q-5.39 0-8.85 3.46t-3.46 8.85v311.38q0 5.39 3.46 8.85t8.85 3.46h140.15v52H132.31Zm192.15-52v-366.46V-217Z"/></svg>
